X: 119
T:Off to California
M:4/4
L:1/4
R:hornpipe
N:Boston session
Z:John Harvey
K:G
(3DEF|GFGBAGED|GBdg e2 (3def|gfgd edBG|ABAG E2 (3DEF|GFGB AGED|GBdg e2 (
3def|gfgd edBG|(3ABA GF G2:|
d|gfeg fedf|edef edB2 |(3def gd edBG|ABAG E2 (3DEF|GFGB AGED|GBdg e2 (3d
ef|gfgd edBG|(3ABA GF G3:|
<end>
<start>
